svg/u1f4b4.svg

<svg viewBox="0 0 128 128" xmlns="http://www.w3.org/2000/svg">
  <g>
    <path d="M119.65,102.09H8.35c-2.4,0-4.35-1.95-4.35-4.35V30.28c0-2.41,1.95-4.37,4.37-4.37h111.27 c2.41,0,4.37,1.95,4.37,4.37v67.46C124,100.14,122.05,102.09,119.65,102.09z" fill="#9E7E54"/>
    <path d="M119.78,89.91H8.22C5.89,89.91,4,88.02,4,85.69V30.28c0-2.41,1.95-4.37,4.37-4.37h111.27 c2.41,0,4.37,1.95,4.37,4.37v55.41C124,88.02,122.11,89.91,119.78,89.91z" fill="#F7B95E"/>
    <circle cx="84.78" cy="57.91" r="18.5" opacity="0.5" fill="#9E7E54"/>
    <path d="M106.45,33.1c0.86,5.4,5.14,9.68,10.54,10.54v28.54c-5.4,0.86-9.68,5.14-10.54,10.54H21.42 c-1.1-5.11-5.26-9.05-10.42-9.87V44.31c5.63-0.89,10.03-5.49,10.63-11.21H106.45 M108.29,31.1H19.69 c0.01,0.22,0.02,0.44,0.02,0.67c0,5.91-4.79,10.7-10.7,10.7v32.23c5.68,0,10.33,4.43,10.68,10.03h88.61 c0-5.91,4.79-10.7,10.7-10.7V41.8C113.08,41.8,108.29,37.01,108.29,31.1L108.29,31.1z" fill="#9E7E54"/>
    <rect height="76.18" fill="#FFECB3" width="22.01" x="53" y="25.91"/>
    <path d="M36.52,55.47l6.16-13.25c0.17-0.37,0.55-0.61,0.96-0.61h3.05c0.48,0,0.78,0.5,0.57,0.93l-7.3,14.31 c-0.21,0.41,0.09,0.89,0.55,0.89h4.13c0.4,0,0.72,0.32,0.72,0.72v1.36c0,0.4-0.32,0.72-0.72,0.72h-5.92 c-0.34,0-0.62,0.28-0.62,0.62v2.45c0,0.34,0.28,0.62,0.62,0.62h5.92c0.4,0,0.72,0.32,0.72,0.72v1.34c0,0.4-0.32,0.72-0.72,0.72 h-5.92c-0.34,0-0.62,0.28-0.62,0.62v5.79c0,0.44-0.36,0.8-0.8,0.8h-2.72c-0.44,0-0.8-0.36-0.8-0.8v-5.79 c0-0.34-0.28-0.62-0.62-0.62h-5.79c-0.4,0-0.72-0.32-0.72-0.72v-1.34c0-0.4,0.32-0.72,0.72-0.72h5.79c0.34,0,0.62-0.28,0.62-0.62 v-2.45c0-0.34-0.28-0.62-0.62-0.62h-5.79c-0.4,0-0.72-0.32-0.72-0.72v-1.36c0-0.4,0.32-0.72,0.72-0.72h4.17 c0.46,0,0.75-0.48,0.55-0.89l-7.3-14.31c-0.22-0.42,0.09-0.93,0.57-0.93h3.12c0.41,0,0.79,0.24,0.96,0.61l6.16,13.25 C35.78,55.86,36.34,55.86,36.52,55.47z" fill="#FFFFFF"/>
    <rect height="12.18" fill="#FFC06C" width="22.01" x="53" y="89.91"/>
  </g>
</svg>

<svg viewBox="0 0 128 128" xmlns="http://www.w3.org/2000/svg">
  <defs/>
  <path d="M119.65,102.09 L8.35,102.09 C5.95,102.09 4,100.14 4,97.74 L4,30.28 C4,27.87 5.95,25.91 8.37,25.91 L119.64,25.91 C122.05,25.91 124.01,27.86 124.01,30.28 L124.01,97.74 C124,100.14 122.05,102.09 119.65,102.09 Z" fill="#9E7E54"/>
  <path d="M119.78,89.91 L8.22,89.91 C5.89,89.91 4,88.02 4,85.69 L4,30.28 C4,27.87 5.95,25.91 8.37,25.91 L119.64,25.91 C122.05,25.91 124.01,27.86 124.01,30.28 L124.01,85.69 C124,88.02 122.11,89.91 119.78,89.91 Z" fill="#F7B95E"/>
  <path d="M103.28,57.91 A18.5 18.5 0 1 1 66.28,57.91 A18.5 18.5 0 1 1 103.28,57.91 Z" fill="#9E7E54" opacity="0.5"/>
  <path d="M106.45,33.1 C107.31,38.5 111.59,42.78 116.99,43.64 L116.99,72.18 C111.59,73.04 107.31,77.32 106.45,82.72 L21.42,82.72 C20.32,77.61 16.16,73.67 11,72.85 L11,44.31 C16.63,43.42 21.03,38.82 21.63,33.1 L106.45,33.1 M108.29,31.1 L19.69,31.1 C19.7,31.32 19.71,31.54 19.71,31.77 C19.71,37.68 14.92,42.47 9.01,42.47 L9.01,74.7 C14.69,74.7 19.34,79.13 19.69,84.73 L108.3,84.73 C108.3,78.82 113.09,74.03 119,74.03 L119,41.8 C113.08,41.8 108.29,37.01 108.29,31.1 L108.29,31.1 Z" fill="#9E7E54"/>
  <path d="M53,25.91 L75.01,25.91 L75.01,102.09 L53,102.09 L53,25.91 Z" fill="#FFECB3"/>
  <path d="M36.52,55.47 L42.68,42.22 C42.85,41.85 43.23,41.61 43.64,41.61 L46.69,41.61 C47.17,41.61 47.47,42.11 47.26,42.54 L39.96,56.85 C39.75,57.26 40.05,57.74 40.51,57.74 L44.64,57.74 C45.04,57.74 45.36,58.06 45.36,58.46 L45.36,59.82 C45.36,60.22 45.04,60.54 44.64,60.54 L38.72,60.54 C38.38,60.54 38.1,60.82 38.1,61.16 L38.1,63.61 C38.1,63.95 38.38,64.23 38.72,64.23 L44.64,64.23 C45.04,64.23 45.36,64.55 45.36,64.95 L45.36,66.29 C45.36,66.69 45.04,67.01 44.64,67.01 L38.72,67.01 C38.38,67.01 38.1,67.29 38.1,67.63 L38.1,73.42 C38.1,73.86 37.74,74.22 37.3,74.22 L34.58,74.22 C34.14,74.22 33.78,73.86 33.78,73.42 L33.78,67.63 C33.78,67.29 33.5,67.01 33.16,67.01 L27.37,67.01 C26.97,67.01 26.65,66.69 26.65,66.29 L26.65,64.95 C26.65,64.55 26.97,64.23 27.37,64.23 L33.16,64.23 C33.5,64.23 33.78,63.95 33.78,63.61 L33.78,61.16 C33.78,60.82 33.5,60.54 33.16,60.54 L27.37,60.54 C26.97,60.54 26.65,60.22 26.65,59.82 L26.65,58.46 C26.65,58.06 26.97,57.74 27.37,57.74 L31.54,57.74 C32,57.74 32.29,57.26 32.09,56.85 L24.79,42.54 C24.57,42.12 24.88,41.61 25.36,41.61 L28.48,41.61 C28.89,41.61 29.27,41.85 29.44,42.22 L35.6,55.47 C35.78,55.86 36.34,55.86 36.52,55.47 Z" fill="#FFFFFF"/>
  <path d="M53,89.91 L75.01,89.91 L75.01,102.09 L53,102.09 L53,89.91 Z" fill="#FFC06C"/>
</svg>
